X:8
T:Песнь 9
M:4/4
L:1/4
Q:1/4=120
K:F
V:1 clef=treble name="Soprano"
%%MIDI program 40
V:2 clef=treble name="Alto"
%%MIDI program 40
V:3 clef=bass octave=-1 name="Tenor"
%%MIDI program 40
V:4 clef=bass octave=-2 name="Bass"
%%MIDI program 40
%%score [(1 2) (3 4)]
%%tempo { 40, 60, *80, 100, 120, 140 }
%%player_top
[V:1]c2ABc2cBA2B2 | GAB/A/GA2 |
s: "Песнь 9"
[V:2]A2FGA2AG^F2G2 | EFG/F/EF2 |
w:Та-ин-ство стран-но-е ви-жу и пре-слав--но-е:
[V:3]f2ccf2fdd2d2 | ccccc2 |
[V:4]f2fff2fgd2g2 | ccccf2 |
[V:1](cd)c/B/AG2 | EG2EFGA(B/A/G)A2 |
[V:2](AB)A/G/FE2 | CE2CDEF(G/F/E)F2 |
w:Не--бо* вер-теп, пре-стол хе-ру-вим-ский Де---ву,
[V:3]f2fcc2 | cc2ccccc2c2 |
[V:4]f2ffc2 | cc2ccccc2f2 |
[V:1]c2cdcB/A/G2 | BAGFG2EFG2GA(B/A/G)A2 |
[V:2]A2ABAG/F/E2 | GFEDE2CDE2EF(G/F/E)F2 |
w:яс-ли вмес-ти-ли--ще, вних же воз-ле-же не-вмес-ти-мый Хрис-тос** Бог;
[V:3]f2fffcc2 | ccccc2ccc2ccc2c2 |
[V:4]f2ffffc2 | ccccc2ccc2ccc2f2 |
[V:1]AcccBA2A2B2 | GA(B2G2)A4 |]
[V:2]FAAAG^F2F2G2 | EF(G2E2)F4 |]
w:Е-го же вос-пе-ва-ю-ще, ве-ли-ча--ем.
[V:3]cfffdd2d2d2 | ccc4c4 |]
[V:4]ffffgd2d2g2 | ccc4f4 |]